src/assets/house.svg

<svg width="402" height="267" fill="none" xmlns="http://www.w3.org/2000/svg"><path d="M98.795 159.507c10.987-6.978 18.286-19.227 18.286-33.205 0-21.745-17.628-39.368-39.368-39.368-21.745 0-39.373 17.623-39.373 39.368 0 13.978 7.31 26.227 18.286 33.205C23.959 168.694 0 198.69 0 234.295c0 42.92 155.416 42.92 155.416 0 0-35.605-23.954-65.596-56.621-74.788ZM397.862 153.807 322.71 78.655V29.09c0-6.173-5.004-11.188-11.194-11.188-6.179 0-11.183 5.015-11.183 11.188v27.195l-53.02-53.009c-4.362-4.368-11.444-4.368-15.8 0l-75.298 75.298a40.086 40.086 0 0 1 14.876 16.752l68.331-68.336 142.645 142.639a11.15 11.15 0 0 0 7.898 3.28c2.85 0 5.727-1.088 7.903-3.28 4.362-4.383 4.362-11.46-.006-15.822Z" fill="#3DB2FF"/><path d="M365.88 166.638 247.336 48.094a11.166 11.166 0 0 0-7.903-3.285c-2.964 0-5.803 1.18-7.903 3.285l-57.235 57.23c.408 2.274.658 4.612.658 7 0 5.118-.968 10.089-2.785 14.68 16.051 11.672 26.173 30.606 26.173 51.225 0 7.19-3.236 23.437-30.47 31.275a93.07 93.07 0 0 1 3.383 24.797c0 11.792-5.586 21.033-14.615 28.153h37.638c7.49 0 14.718-3.166 19.831-8.703a26.908 26.908 0 0 0 7.201-18.335v-42.49c0-10.312 7.903-18.923 18.112-19.896 10.209.974 18.112 9.589 18.112 19.896v42.49c0 6.81 2.562 13.32 7.196 18.335a27.04 27.04 0 0 0 19.831 8.703h57.866c14.892 0 27.027-12.124 27.027-27.038V177.55c0-1.692-.158-3.41-.5-5.118a11.15 11.15 0 0 0-3.073-5.794Z" fill="#3DB2FF"/><path d="M113.921 156.717c17.726 8.284 31.867 22.436 40.418 39.613 15.79-2.633 28.163-8.659 28.163-18.101 0-21.724-14.62-40.026-34.554-45.639 6.701-4.27 11.166-11.738 11.166-20.271 0-13.266-10.764-24.019-24.024-24.019-7.99 0-15.044 3.911-19.412 9.9 5.836 7.869 9.333 17.567 9.333 28.086-.005 11.34-4.003 22.028-11.09 30.431Z" fill="#3DB2FF"/></svg>

<svg width="402" height="267" viewBox="0 0 402 267" fill="none" xmlns="http://www.w3.org/2000/svg">
<path d="M98.795 159.507C109.782 152.529 117.081 140.28 117.081 126.302C117.081 104.557 99.453 86.9341 77.713 86.9341C55.968 86.9341 38.34 104.557 38.34 126.302C38.34 140.28 45.65 152.529 56.626 159.507C23.959 168.694 0 198.69 0 234.295C0 277.215 155.416 277.215 155.416 234.295C155.416 198.69 131.462 168.699 98.795 159.507Z" fill="#3DB2FF"/>
<path d="M397.862 153.807L322.71 78.655V29.09C322.71 22.917 317.706 17.902 311.516 17.902C305.337 17.902 300.333 22.917 300.333 29.09V56.285L247.313 3.276C242.951 -1.092 235.869 -1.092 231.513 3.276L156.215 78.574C162.644 82.621 167.822 88.424 171.091 95.326L239.422 26.99L382.067 169.629C384.237 171.805 387.109 172.909 389.965 172.909C392.815 172.909 395.692 171.821 397.868 169.629C402.23 165.246 402.23 158.169 397.862 153.807Z" fill="#3DB2FF"/>
<path d="M365.88 166.638L247.336 48.0941C245.231 45.9891 242.397 44.8091 239.433 44.8091C236.469 44.8091 233.63 45.9891 231.53 48.0941L174.295 105.324C174.703 107.598 174.953 109.936 174.953 112.324C174.953 117.442 173.985 122.413 172.168 127.004C188.219 138.676 198.341 157.61 198.341 178.229C198.341 185.419 195.105 201.666 167.871 209.504C170.068 217.461 171.254 225.778 171.254 234.301C171.254 246.093 165.668 255.334 156.639 262.454H194.277C201.767 262.454 208.995 259.288 214.108 253.751C218.753 248.736 221.309 242.226 221.309 235.416V192.926C221.309 182.614 229.212 174.003 239.421 173.03C249.63 174.004 257.533 182.619 257.533 192.926V235.416C257.533 242.226 260.095 248.736 264.729 253.751C269.831 259.288 277.059 262.454 284.56 262.454H342.426C357.318 262.454 369.453 250.33 369.453 235.416V177.55C369.453 175.858 369.295 174.14 368.953 172.432C368.529 170.228 367.463 168.221 365.88 166.638Z" fill="#3DB2FF"/>
<path d="M113.921 156.717C131.647 165.001 145.788 179.153 154.339 196.33C170.129 193.697 182.502 187.671 182.502 178.229C182.502 156.505 167.882 138.203 147.948 132.59C154.649 128.32 159.114 120.852 159.114 112.319C159.114 99.053 148.35 88.3 135.09 88.3C127.1 88.3 120.046 92.2111 115.678 98.1991C121.514 106.069 125.011 115.767 125.011 126.286C125.006 137.626 121.008 148.314 113.921 156.717Z" fill="#3DB2FF"/>
</svg>
